src/assets/foodIcons/shawarma-icon.svg

<svg width="32" class="iconPrimary" height="40" viewBox="0 0 32 40" fill="none" xmlns="http://www.w3.org/2000/svg">
<path d="M12.7754 4.69225C12.1061 4.45806 11.3786 4.34491 10.6463 4.36115C9.91406 4.37739 9.19577 4.52259 8.54436 4.78607C7.87701 5.05107 7.29391 5.43058 6.83813 5.89657C6.38236 6.36255 6.06555 6.90311 5.91112 7.4783C5.86443 7.64962 5.8302 7.82992 5.79907 8.01185C5.7901 8.06936 5.79571 8.12771 5.81556 8.18351C5.83542 8.23932 5.86913 8.29148 5.91475 8.33699C5.96038 8.3825 6.01701 8.42045 6.08139 8.44866C6.14576 8.47687 6.2166 8.49477 6.28982 8.50134C6.31158 8.50256 6.33342 8.50256 6.35518 8.50134C6.49102 8.50145 6.62227 8.46269 6.72441 8.39228C6.82656 8.32186 6.89262 8.22463 6.91026 8.11872C6.93308 7.96371 6.96525 7.81034 7.00571 7.66267C7.12548 7.2157 7.37154 6.79562 7.7257 6.43353C8.07986 6.07145 8.53304 5.77663 9.05171 5.57089C9.55481 5.36686 10.1098 5.25426 10.6756 5.24141C11.2414 5.22856 11.8037 5.31579 12.3209 5.49665C12.3811 5.51786 12.4423 5.54071 12.5046 5.56437C12.6362 5.6061 12.7831 5.60691 12.9155 5.56663C13.0479 5.52634 13.1558 5.44799 13.2175 5.34744C13.2791 5.2469 13.2898 5.13168 13.2474 5.02517C13.205 4.91865 13.1126 4.8288 12.9891 4.77383C12.9196 4.74527 12.847 4.71835 12.7754 4.69225Z" fill="currentColor"/>
<path d="M26.5567 7.47502C26.4016 6.90057 26.0844 6.36082 25.6287 5.89557C25.173 5.43033 24.5902 5.05145 23.9235 4.78687C23.3365 4.54974 22.6947 4.40822 22.0365 4.37079C21.3783 4.33336 20.7172 4.40079 20.0929 4.56904C19.6292 3.47502 18.4443 2 16.2344 2C15.0278 2 13.985 2.43891 13.2173 3.27024C13.1301 3.36458 13.0941 3.4823 13.1172 3.59751C13.1404 3.71272 13.2208 3.81597 13.3407 3.88456C13.4607 3.95315 13.6104 3.98145 13.7569 3.96325C13.9035 3.94504 14.0348 3.88181 14.122 3.78748C14.6781 3.18458 15.3888 2.87946 16.2344 2.87946C18.5408 2.87946 19.1467 5.15725 19.1706 5.2527C19.187 5.31879 19.2224 5.38104 19.2742 5.43464C19.326 5.48825 19.3928 5.53179 19.4694 5.5619C19.546 5.59201 19.6303 5.60789 19.716 5.60832C19.8016 5.60874 19.8862 5.5937 19.9633 5.56435C20.0255 5.54069 20.0867 5.51785 20.1479 5.49663C20.665 5.31579 21.2271 5.22857 21.7928 5.24142C22.3584 5.25426 22.9132 5.36686 23.4161 5.57088C23.9342 5.77629 24.3871 6.0705 24.7414 6.43181C25.0956 6.79313 25.3423 7.21235 25.4632 7.65858C25.5036 7.80787 25.5358 7.96288 25.5586 8.1187C25.5744 8.22579 25.6396 8.3246 25.742 8.39634C25.8443 8.46808 25.9766 8.50777 26.1137 8.50785C26.1355 8.50907 26.1573 8.50907 26.1791 8.50785C26.2522 8.50118 26.323 8.4832 26.3873 8.45496C26.4516 8.42672 26.5082 8.38877 26.5538 8.34329C26.5994 8.2978 26.6331 8.24568 26.653 8.18992C26.6729 8.13416 26.6786 8.07586 26.6698 8.01836C26.6428 7.83316 26.6044 7.65123 26.5567 7.47502Z" fill="currentColor"/>
<path d="M10.9276 8.59602C10.3024 8.6707 9.70389 8.84685 9.17001 9.11325C9.0648 9.16334 8.98352 9.23929 8.93875 9.32937C8.89399 9.41944 8.88823 9.51861 8.92238 9.61151C8.95652 9.70442 9.02866 9.78588 9.12764 9.84329C9.22661 9.9007 9.34688 9.93085 9.46985 9.92908C9.5777 9.92872 9.68304 9.90347 9.77281 9.85647C10.1766 9.65496 10.6291 9.52161 11.1019 9.46488C11.1764 9.4579 11.2483 9.43921 11.3134 9.40993C11.3785 9.38065 11.4355 9.34136 11.4809 9.29442C11.5263 9.24747 11.5592 9.19382 11.5777 9.13666C11.5962 9.07951 11.5999 9.02001 11.5885 8.9617C11.5772 8.9034 11.551 8.84749 11.5116 8.7973C11.4722 8.74711 11.4204 8.70366 11.3592 8.66954C11.2981 8.63543 11.2288 8.61133 11.1555 8.5987C11.0822 8.58607 11.0065 8.58516 10.9328 8.59602H10.9276Z" fill="currentColor"/>
<path d="M22.584 9.85642C22.7093 9.91622 22.8594 9.93495 23.0021 9.9086C23.1447 9.88225 23.2685 9.81292 23.3469 9.71552C23.4252 9.61812 23.4517 9.50044 23.4208 9.3878C23.3899 9.27516 23.304 9.17655 23.1816 9.1132C22.7146 8.87848 22.197 8.71261 21.6544 8.62371C21.5824 8.61203 21.5083 8.61161 21.4361 8.62247C21.364 8.63332 21.2953 8.65525 21.2339 8.68699C21.1725 8.71874 21.1197 8.75967 21.0785 8.80746C21.0372 8.85526 21.0083 8.90897 20.9935 8.96554C20.9786 9.02211 20.9781 9.08042 20.9919 9.13715C21.0057 9.19388 21.0336 9.24792 21.074 9.29618C21.1143 9.34443 21.1664 9.38596 21.2272 9.4184C21.288 9.45084 21.3563 9.47354 21.4282 9.48522C21.8388 9.553 22.2304 9.67877 22.584 9.85642Z" fill="currentColor"/>
<path d="M19.6853 10.4528C19.7172 10.5462 19.7873 10.6288 19.8848 10.6878C19.9823 10.7467 20.1018 10.7788 20.2248 10.7791C20.275 10.7788 20.3248 10.7734 20.3732 10.7628C20.444 10.7475 20.5103 10.7214 20.5683 10.6859C20.6263 10.6504 20.6748 10.6063 20.711 10.556C20.7473 10.5058 20.7706 10.4504 20.7795 10.3931C20.7885 10.3357 20.783 10.2776 20.7633 10.2219C20.4957 9.46023 19.9245 8.78608 19.1338 8.29844C18.343 7.8108 17.3742 7.53535 16.3697 7.51253C15.3652 7.48971 14.3778 7.72073 13.5526 8.17166C12.7273 8.62259 12.1076 9.26969 11.7846 10.0179C11.7574 10.0732 11.7448 10.1323 11.7474 10.1915C11.75 10.2508 11.7679 10.309 11.7998 10.3626C11.8318 10.4163 11.8772 10.4644 11.9334 10.5039C11.9895 10.5434 12.0553 10.5736 12.1267 10.5926C12.198 10.6117 12.2736 10.6192 12.3487 10.6147C12.4239 10.6102 12.4971 10.5938 12.564 10.5665C12.6309 10.5392 12.6901 10.5015 12.738 10.4557C12.7859 10.41 12.8216 10.3571 12.8428 10.3002C13.0894 9.73026 13.5618 9.23743 14.1907 8.89403C14.8196 8.55064 15.5719 8.37476 16.3372 8.39218C17.1025 8.40961 17.8406 8.61944 18.4432 8.99087C19.0457 9.36231 19.4811 9.87581 19.6853 10.456V10.4528Z" fill="currentColor"/>
<path d="M27.0006 9.71606H26.9082C23.1835 9.71606 19.6124 11.3983 17.1109 14.332C17.0283 14.4294 16.9983 14.5485 17.0275 14.6633C17.0567 14.778 17.1427 14.879 17.2665 14.9439C17.3903 15.0088 17.5419 15.0324 17.6878 15.0094C17.8337 14.9865 17.9621 14.9189 18.0447 14.8215C20.2235 12.2606 23.2686 10.7424 26.4486 10.6045V37.1107C23.2561 36.9802 20.3033 35.5125 18.0893 32.9435C18.0512 32.8909 17.9997 32.8451 17.9381 32.8089C17.8765 32.7726 17.806 32.7468 17.7311 32.733C17.6562 32.7192 17.5784 32.7177 17.5028 32.7285C17.4271 32.7394 17.3551 32.7625 17.2912 32.7962C17.2274 32.83 17.1731 32.8738 17.1317 32.9248C17.0904 32.9758 17.0629 33.033 17.0509 33.0928C17.0389 33.1525 17.0428 33.2136 17.0622 33.2721C17.0816 33.3307 17.1162 33.3854 17.1638 33.433C18.5935 35.0932 20.3708 36.3471 22.3224 37.1164H14.819C14.6707 37.1164 14.5284 37.1628 14.4236 37.2452C14.3187 37.3277 14.2598 37.4395 14.2598 37.5562C14.2598 37.6728 14.3187 37.7846 14.4236 37.8671C14.5284 37.9496 14.6707 37.9959 14.819 37.9959H27.0006C27.1489 37.9959 27.2911 37.9496 27.396 37.8671C27.5009 37.7846 27.5598 37.6728 27.5598 37.5562V10.1582C27.5602 10.1003 27.546 10.0428 27.5181 9.98921C27.4902 9.93558 27.4491 9.88682 27.3971 9.84572C27.3451 9.80463 27.2833 9.77202 27.2153 9.74977C27.1472 9.72752 27.0743 9.71606 27.0006 9.71606Z" fill="currentColor"/>
<path d="M5.09229 10.1582C5.09229 10.2749 5.15121 10.3867 5.25609 10.4692C5.36096 10.5516 5.5032 10.598 5.65152 10.598C9.86283 10.598 13.8407 13.0544 16.0319 17.0087C16.0755 17.0871 16.1472 17.1538 16.2383 17.2006C16.3293 17.2474 16.4357 17.2723 16.5445 17.2723C16.6213 17.2724 16.6973 17.2599 16.7675 17.2355C16.8349 17.2126 16.8959 17.1794 16.9469 17.1379C16.9979 17.0963 17.038 17.0473 17.0649 16.9936C17.0918 16.9398 17.105 16.8825 17.1036 16.8247C17.1023 16.767 17.0864 16.71 17.057 16.6571C15.9157 14.5939 14.2868 12.8635 12.3508 11.652C10.3297 10.385 8.00877 9.71606 5.65152 9.71606C5.57782 9.71606 5.50484 9.72752 5.43679 9.74977C5.36874 9.77202 5.30695 9.80463 5.25498 9.84572C5.20301 9.88682 5.16189 9.93558 5.13397 9.98921C5.10605 10.0428 5.09188 10.1003 5.09229 10.1582Z" fill="currentColor"/>
<path d="M17.166 18.0808C17.0959 18.0978 17.0307 18.1256 16.9742 18.1624C16.9177 18.1993 16.871 18.2446 16.8368 18.2956C16.8026 18.3467 16.7815 18.4026 16.7748 18.4601C16.7681 18.5176 16.7759 18.5755 16.7977 18.6307C16.8382 18.7351 16.8786 18.8403 16.917 18.9464C16.9506 19.0381 17.0211 19.1187 17.1181 19.1761C17.215 19.2335 17.3331 19.2646 17.4544 19.2646C17.5068 19.2649 17.5589 19.2591 17.609 19.2474C17.6797 19.2316 17.7457 19.2049 17.8032 19.1689C17.8607 19.133 17.9086 19.0884 17.9442 19.0379C17.9797 18.9873 18.0023 18.9317 18.0104 18.8743C18.0186 18.8169 18.0123 18.7588 17.9919 18.7033C17.9514 18.5915 17.9089 18.4806 17.8653 18.3704C17.8213 18.2591 17.723 18.1661 17.5919 18.1118C17.4608 18.0575 17.3076 18.0464 17.166 18.0808Z" fill="currentColor"/>
<path d="M5 37.5603C5 37.6769 5.05892 37.7888 5.16379 37.8712C5.26867 37.9537 5.41091 38 5.55923 38H5.65156C12.9557 38 18.8966 31.6561 18.8966 23.8585C18.8978 22.8388 18.7958 21.8207 18.5916 20.8138C18.5798 20.7568 18.5539 20.7021 18.5154 20.6529C18.4768 20.6037 18.4262 20.561 18.3666 20.5272C18.3071 20.4933 18.2396 20.4691 18.1681 20.4558C18.0966 20.4424 18.0224 20.4403 17.9499 20.4495C17.8773 20.4588 17.8078 20.4791 17.7452 20.5095C17.6827 20.5398 17.6283 20.5795 17.5853 20.6264C17.5423 20.6732 17.5114 20.7263 17.4945 20.7825C17.4776 20.8388 17.4749 20.8971 17.4866 20.9541C17.6825 21.9146 17.7804 22.8858 17.7792 23.8585C17.7792 31.0002 12.5916 36.8415 6.11949 37.1108V11.8413C6.11949 11.7247 6.06057 11.6129 5.95569 11.5304C5.85082 11.4479 5.70858 11.4016 5.56026 11.4016C5.41195 11.4016 5.26971 11.4479 5.16483 11.5304C5.05996 11.6129 5.00104 11.7247 5.00104 11.8413L5 37.5603Z" fill="currentColor"/>
<path d="M10.0226 16.7241H10.2415C10.3898 16.7241 10.5321 16.6777 10.637 16.5953C10.7418 16.5128 10.8007 16.401 10.8007 16.2843C10.8007 16.1677 10.7418 16.0559 10.637 15.9734C10.5321 15.8909 10.3898 15.8446 10.2415 15.8446H10.0226C9.87429 15.8446 9.73205 15.8909 9.62717 15.9734C9.5223 16.0559 9.46338 16.1677 9.46338 16.2843C9.46338 16.401 9.5223 16.5128 9.62717 16.5953C9.73205 16.6777 9.87429 16.7241 10.0226 16.7241Z" fill="currentColor"/>
<path d="M14.1352 17.9551C14.1352 17.8385 14.0763 17.7266 13.9714 17.6442C13.8666 17.5617 13.7243 17.5154 13.576 17.5154H13.3571C13.2088 17.5154 13.0665 17.5617 12.9616 17.6442C12.8568 17.7266 12.7979 17.8385 12.7979 17.9551C12.7979 18.0717 12.8568 18.1836 12.9616 18.266C13.0665 18.3485 13.2088 18.3948 13.3571 18.3948H13.576C13.7243 18.3948 13.8666 18.3485 13.9714 18.266C14.0763 18.1836 14.1352 18.0717 14.1352 17.9551Z" fill="currentColor"/>
<path d="M11.2617 19.4424C11.2617 19.3264 11.2033 19.215 11.0994 19.1326C10.9954 19.0503 10.8542 19.0035 10.7066 19.0027H10.4835C10.3352 19.0027 10.193 19.049 10.0881 19.1315C9.98323 19.2139 9.92432 19.3258 9.92432 19.4424C9.92432 19.559 9.98323 19.6709 10.0881 19.7534C10.193 19.8358 10.3352 19.8821 10.4835 19.8821H10.7066C10.8542 19.8813 10.9954 19.8346 11.0994 19.7522C11.2033 19.6698 11.2617 19.5585 11.2617 19.4424Z" fill="currentColor"/>
<path d="M12.8621 26.9879H12.6432C12.4949 26.9879 12.3527 27.0342 12.2478 27.1167C12.1429 27.1992 12.084 27.311 12.084 27.4276C12.084 27.5443 12.1429 27.6561 12.2478 27.7386C12.3527 27.821 12.4949 27.8674 12.6432 27.8674H12.8621C13.0104 27.8674 13.1527 27.821 13.2576 27.7386C13.3624 27.6561 13.4214 27.5443 13.4214 27.4276C13.4214 27.311 13.3624 27.1992 13.2576 27.1167C13.1527 27.0342 13.0104 26.9879 12.8621 26.9879Z" fill="currentColor"/>
<path d="M9.92104 30.2039H10.14C10.2883 30.2039 10.4305 30.1576 10.5354 30.0751C10.6403 29.9927 10.6992 29.8808 10.6992 29.7642C10.6992 29.6476 10.6403 29.5357 10.5354 29.4533C10.4305 29.3708 10.2883 29.3245 10.14 29.3245H9.92104C9.77273 29.3245 9.63048 29.3708 9.52561 29.4533C9.42073 29.5357 9.36182 29.6476 9.36182 29.7642C9.36182 29.8808 9.42073 29.9927 9.52561 30.0751C9.63048 30.1576 9.77273 30.2039 9.92104 30.2039Z" fill="currentColor"/>
<path d="M20.7216 15.7516H20.5016C20.3533 15.7516 20.2111 15.7979 20.1062 15.8804C20.0013 15.9628 19.9424 16.0747 19.9424 16.1913C19.9424 16.3079 20.0013 16.4198 20.1062 16.5023C20.2111 16.5847 20.3533 16.631 20.5016 16.631H20.7216C20.8699 16.631 21.0121 16.5847 21.117 16.5023C21.2219 16.4198 21.2808 16.3079 21.2808 16.1913C21.2808 16.0747 21.2219 15.9628 21.117 15.8804C21.0121 15.7979 20.8699 15.7516 20.7216 15.7516Z" fill="currentColor"/>
<path d="M23.4276 13.7307H23.2086C23.0603 13.7307 22.9181 13.777 22.8132 13.8595C22.7083 13.942 22.6494 14.0538 22.6494 14.1704C22.6494 14.2871 22.7083 14.3989 22.8132 14.4814C22.9181 14.5638 23.0603 14.6102 23.2086 14.6102H23.4276C23.5759 14.6102 23.7181 14.5638 23.823 14.4814C23.9279 14.3989 23.9868 14.2871 23.9868 14.1704C23.9868 14.0538 23.9279 13.942 23.823 13.8595C23.7181 13.777 23.5759 13.7307 23.4276 13.7307Z" fill="currentColor"/>
<path d="M22.2549 30.6829C22.2545 30.7408 22.2686 30.7983 22.2966 30.8519C22.3245 30.9056 22.3656 30.9543 22.4176 30.9954C22.4696 31.0365 22.5313 31.0691 22.5994 31.0914C22.6674 31.1136 22.7404 31.1251 22.8141 31.1251H23.033C23.1813 31.1251 23.3236 31.0787 23.4285 30.9963C23.5333 30.9138 23.5923 30.802 23.5923 30.6853C23.5923 30.5687 23.5333 30.4569 23.4285 30.3744C23.3236 30.2919 23.1813 30.2456 23.033 30.2456H22.8141C22.6663 30.2456 22.5246 30.2916 22.4198 30.3735C22.315 30.4555 22.2557 30.5667 22.2549 30.6829Z" fill="currentColor"/>
<path d="M20.5298 28.2035C20.5298 28.3201 20.5887 28.432 20.6936 28.5145C20.7985 28.5969 20.9407 28.6433 21.089 28.6433H21.309C21.4573 28.6433 21.5995 28.5969 21.7044 28.5145C21.8093 28.432 21.8682 28.3201 21.8682 28.2035C21.8682 28.0869 21.8093 27.9751 21.7044 27.8926C21.5995 27.8101 21.4573 27.7638 21.309 27.7638H21.089C20.9408 27.764 20.7987 27.8104 20.6939 27.8928C20.5891 27.9752 20.5301 28.087 20.5298 28.2035Z" fill="currentColor"/>
<path d="M23.4678 26.7416C23.4678 26.8582 23.5267 26.9701 23.6316 27.0525C23.7364 27.135 23.8787 27.1813 24.027 27.1813H24.2459C24.3194 27.1813 24.3921 27.17 24.4599 27.1479C24.5278 27.1258 24.5894 27.0934 24.6413 27.0525C24.6933 27.0117 24.7345 26.9632 24.7626 26.9099C24.7907 26.8565 24.8051 26.7994 24.8051 26.7416C24.8051 26.6839 24.7907 26.6267 24.7626 26.5733C24.7345 26.52 24.6933 26.4715 24.6413 26.4307C24.5894 26.3898 24.5278 26.3575 24.4599 26.3354C24.3921 26.3133 24.3194 26.3019 24.2459 26.3019H24.027C23.8787 26.3019 23.7364 26.3482 23.6316 26.4307C23.5267 26.5131 23.4678 26.625 23.4678 26.7416Z" fill="currentColor"/>
<path d="M12.5036 38.0001C12.6519 38.0001 12.7941 37.9537 12.899 37.8713C13.0039 37.7888 13.0628 37.677 13.0628 37.5603C13.0628 37.4437 13.0039 37.3319 12.899 37.2494C12.7941 37.1669 12.6519 37.1206 12.5036 37.1206H12.0958C11.9475 37.1206 11.8053 37.1669 11.7004 37.2494C11.5955 37.3319 11.5366 37.4437 11.5366 37.5603C11.5366 37.677 11.5955 37.7888 11.7004 37.8713C11.8053 37.9537 11.9475 38.0001 12.0958 38.0001H12.5036Z" fill="currentColor"/>
</svg>

<svg xmlns="http://www.w3.org/2000/svg" width="32" height="40" fill="none" class="iconPrimary" viewBox="0 0 32 40">
    <path fill="currentColor" d="M12.775 4.692a6.066 6.066 0 0 0-2.129-.33 5.981 5.981 0 0 0-2.102.424 4.917 4.917 0 0 0-1.706 1.11 3.612 3.612 0 0 0-.927 1.582c-.047.172-.08.352-.112.534a.349.349 0 0 0 .017.172c.02.055.053.107.099.153a.545.545 0 0 0 .166.112.67.67 0 0 0 .274.052.654.654 0 0 0 .37-.109.422.422 0 0 0 .185-.273c.023-.155.055-.309.096-.456.12-.447.366-.867.72-1.23a3.818 3.818 0 0 1 1.326-.862 4.617 4.617 0 0 1 1.624-.33 4.683 4.683 0 0 1 1.829.323.702.702 0 0 0 .41.003.53.53 0 0 0 .303-.22.355.355 0 0 0 .03-.322.48.48 0 0 0-.259-.251 5.724 5.724 0 0 0-.214-.082ZM26.557 7.475a3.614 3.614 0 0 0-.928-1.58 4.919 4.919 0 0 0-1.706-1.108 5.956 5.956 0 0 0-1.886-.416 6.154 6.154 0 0 0-1.944.198C19.629 3.475 18.444 2 16.234 2c-1.206 0-2.249.439-3.017 1.27a.37.37 0 0 0-.1.328.44.44 0 0 0 .224.287.68.68 0 0 0 .416.078.597.597 0 0 0 .365-.176c.556-.602 1.267-.908 2.112-.908 2.307 0 2.913 2.278 2.937 2.374a.402.402 0 0 0 .103.182.55.55 0 0 0 .195.127.686.686 0 0 0 .494.002c.063-.023.124-.046.185-.067a4.682 4.682 0 0 1 1.645-.256c.565.013 1.12.126 1.623.33.518.205.971.5 1.325.86.355.362.601.781.722 1.228.04.149.073.304.096.46a.419.419 0 0 0 .183.277.653.653 0 0 0 .372.112.585.585 0 0 0 .44-.165.414.414 0 0 0 .099-.153.35.35 0 0 0 .017-.172 4.65 4.65 0 0 0-.113-.543ZM10.928 8.596a5.374 5.374 0 0 0-1.758.517.486.486 0 0 0-.231.216.352.352 0 0 0-.017.283.456.456 0 0 0 .206.231c.099.058.219.088.342.086a.662.662 0 0 0 .303-.073 4.07 4.07 0 0 1 1.329-.391.67.67 0 0 0 .211-.055.541.541 0 0 0 .168-.116.41.41 0 0 0 .097-.157.348.348 0 0 0 .01-.175.385.385 0 0 0-.076-.165.506.506 0 0 0-.153-.127.643.643 0 0 0-.204-.071.708.708 0 0 0-.222-.003h-.005ZM22.584 9.856c.125.06.275.079.418.053a.574.574 0 0 0 .345-.193.363.363 0 0 0 .074-.328.454.454 0 0 0-.24-.275 5.324 5.324 0 0 0-1.527-.49.709.709 0 0 0-.42.064.519.519 0 0 0-.156.12.396.396 0 0 0-.084.159.347.347 0 0 0-.002.171c.014.057.042.11.082.16.04.047.092.089.153.121.061.033.13.056.201.067.41.068.802.194 1.156.371ZM19.685 10.453a.451.451 0 0 0 .2.235.665.665 0 0 0 .488.075.628.628 0 0 0 .195-.077.489.489 0 0 0 .143-.13.377.377 0 0 0 .069-.163.348.348 0 0 0-.017-.171c-.267-.762-.839-1.436-1.63-1.924-.79-.487-1.759-.763-2.763-.785-1.005-.023-1.992.208-2.817.659-.826.45-1.445 1.098-1.768 1.846a.356.356 0 0 0 .015.345.466.466 0 0 0 .133.14c.056.04.122.07.194.09a.7.7 0 0 0 .437-.027.554.554 0 0 0 .174-.11.418.418 0 0 0 .105-.156c.246-.57.719-1.063 1.348-1.406a4.306 4.306 0 0 1 2.146-.502 4.22 4.22 0 0 1 2.106.599c.603.371 1.038.885 1.242 1.465v-.003ZM27 9.716h-.092c-3.725 0-7.296 1.682-9.797 4.616a.366.366 0 0 0-.084.331c.03.115.116.216.24.28a.688.688 0 0 0 .42.066.585.585 0 0 0 .358-.188c2.178-2.56 5.224-4.079 8.404-4.216V37.11c-3.193-.13-6.146-1.598-8.36-4.167a.495.495 0 0 0-.15-.135.635.635 0 0 0-.208-.076.71.71 0 0 0-.44.063.515.515 0 0 0-.16.129.389.389 0 0 0-.08.168.348.348 0 0 0 .011.18c.02.058.054.112.102.16a13.215 13.215 0 0 0 5.158 3.683H14.82a.645.645 0 0 0-.395.13.399.399 0 0 0-.164.31c0 .117.059.229.164.311a.644.644 0 0 0 .395.129h12.182c.148 0 .29-.046.395-.129a.399.399 0 0 0 .164-.31V10.157a.36.36 0 0 0-.042-.169.448.448 0 0 0-.12-.143.588.588 0 0 0-.183-.096.693.693 0 0 0-.214-.034Z"/>
    <path fill="currentColor" d="M5.092 10.158c0 .117.06.229.164.311a.645.645 0 0 0 .396.129c4.21 0 8.189 2.456 10.38 6.41a.487.487 0 0 0 .206.193.673.673 0 0 0 .53.034.58.58 0 0 0 .179-.097.445.445 0 0 0 .118-.144.357.357 0 0 0-.008-.337c-1.141-2.063-2.77-3.793-4.706-5.005a12.614 12.614 0 0 0-6.7-1.936.693.693 0 0 0-.214.034.587.587 0 0 0-.182.096.449.449 0 0 0-.121.143.36.36 0 0 0-.042.17ZM17.166 18.08a.62.62 0 0 0-.192.082.48.48 0 0 0-.137.134.351.351 0 0 0-.04.335c.041.104.082.21.12.315a.454.454 0 0 0 .201.23.664.664 0 0 0 .491.071.622.622 0 0 0 .194-.078.487.487 0 0 0 .141-.131.377.377 0 0 0 .066-.164.35.35 0 0 0-.018-.17 12.2 12.2 0 0 0-.127-.334.484.484 0 0 0-.273-.258.698.698 0 0 0-.426-.031ZM5 37.56c0 .117.059.229.164.311a.644.644 0 0 0 .395.129h.093c7.304 0 13.245-6.344 13.245-14.142 0-1.02-.101-2.037-.305-3.044a.39.39 0 0 0-.077-.161.504.504 0 0 0-.148-.126.706.706 0 0 0-.621-.018.53.53 0 0 0-.16.117.403.403 0 0 0-.091.156.35.35 0 0 0-.008.172c.196.96.293 1.932.292 2.904 0 7.142-5.187 12.984-11.66 13.253V11.84a.399.399 0 0 0-.163-.31.644.644 0 0 0-.396-.13.644.644 0 0 0-.395.13.399.399 0 0 0-.164.31L5 37.561Z"/>
    <path fill="currentColor" d="M10.023 16.724h.219c.148 0 .29-.046.395-.129a.399.399 0 0 0 .164-.31.399.399 0 0 0-.164-.312.644.644 0 0 0-.396-.128h-.218a.644.644 0 0 0-.396.128.399.399 0 0 0-.164.311c0 .117.06.229.164.311a.645.645 0 0 0 .396.13ZM14.135 17.955a.398.398 0 0 0-.164-.31.644.644 0 0 0-.395-.13h-.219a.644.644 0 0 0-.395.13.399.399 0 0 0-.164.31c0 .117.059.229.164.311a.644.644 0 0 0 .395.129h.219c.148 0 .29-.046.395-.129a.398.398 0 0 0 .164-.31ZM11.262 19.442a.398.398 0 0 0-.163-.31.643.643 0 0 0-.392-.13h-.224a.644.644 0 0 0-.395.13.398.398 0 0 0-.164.31c0 .117.06.229.164.311a.645.645 0 0 0 .396.13h.223a.642.642 0 0 0 .392-.13.398.398 0 0 0 .163-.31ZM12.862 26.988h-.219a.644.644 0 0 0-.395.129.399.399 0 0 0-.164.31c0 .117.059.23.164.312a.645.645 0 0 0 .395.128h.22c.147 0 .29-.046.395-.128a.399.399 0 0 0 .163-.311.399.399 0 0 0-.163-.311.644.644 0 0 0-.396-.13ZM9.921 30.204h.219c.148 0 .29-.046.395-.129a.398.398 0 0 0 .164-.31.398.398 0 0 0-.164-.312.644.644 0 0 0-.395-.128h-.219a.644.644 0 0 0-.395.128.398.398 0 0 0-.164.311c0 .117.059.229.164.311a.644.644 0 0 0 .395.129ZM20.722 15.752h-.22a.644.644 0 0 0-.396.128.398.398 0 0 0-.164.311c0 .117.06.229.164.311a.645.645 0 0 0 .396.129h.22c.148 0 .29-.046.395-.129a.399.399 0 0 0 .164-.31.398.398 0 0 0-.164-.312.644.644 0 0 0-.395-.128ZM23.428 13.73h-.22a.644.644 0 0 0-.395.13.399.399 0 0 0-.164.31c0 .117.06.229.164.311a.645.645 0 0 0 .396.13h.219c.148 0 .29-.047.395-.13a.399.399 0 0 0 .164-.31.399.399 0 0 0-.164-.311.644.644 0 0 0-.395-.13ZM22.255 30.683c0 .058.014.115.042.169a.447.447 0 0 0 .12.143.588.588 0 0 0 .182.096.694.694 0 0 0 .215.034h.219c.148 0 .29-.046.395-.129a.399.399 0 0 0 .164-.31.399.399 0 0 0-.163-.312.644.644 0 0 0-.396-.128h-.219a.645.645 0 0 0-.394.128.4.4 0 0 0-.165.309ZM20.53 28.203c0 .117.059.229.164.312a.645.645 0 0 0 .395.128h.22c.148 0 .29-.046.395-.128a.399.399 0 0 0 .164-.312.399.399 0 0 0-.164-.31.644.644 0 0 0-.395-.13h-.22a.645.645 0 0 0-.395.13.4.4 0 0 0-.164.31ZM23.468 26.742c0 .116.059.228.164.31a.644.644 0 0 0 .395.13h.219a.693.693 0 0 0 .214-.034.586.586 0 0 0 .181-.096.449.449 0 0 0 .122-.142.36.36 0 0 0 0-.337.449.449 0 0 0-.122-.142.585.585 0 0 0-.181-.096.693.693 0 0 0-.214-.033h-.219a.644.644 0 0 0-.395.129.398.398 0 0 0-.164.31ZM12.504 38c.148 0 .29-.046.395-.129a.399.399 0 0 0 .164-.31.399.399 0 0 0-.164-.312.644.644 0 0 0-.395-.128h-.408a.644.644 0 0 0-.396.128.399.399 0 0 0-.163.311c0 .117.058.229.163.311a.645.645 0 0 0 .396.13h.408Z"/>
</svg>
